!!!SOCIAL_FUNCTION:	songs with hunting dance
!!!PDT:	1956
!!!OTL: No_49_Cow_Creek_Hunting_Dance_Song_(p).krn
!!!LANG: Non-Tone
!!!LING_GROUP: Muskogean
!!!REG: Florida
**kern
*staff1
=1-
*clefF4
*k[b-]
*M2/4
4F\
8F\L
8F\J
=2||
*M3/4
4c\
8c\L
[8B-\J
4B-\]
=3!|:
*M2/4
4B-\
8.A\L
16F\Jk
=4
4B-\
4r
=5
4F\
4F\
=6
8c\L
8A\J
8B-\L
8A\J
=7||
*M3/4
4F\
8.B-\L
16F\Jk
4F\
=8||
*M2/4
2F\
=9
8c\L
8A\J
8B-\L
8A\J
=10||
*M3/4
8A\L
8F\J
4F\
4r
=11
4F\
2F\
=12||
*M2/4
4..F\
16F\
=13||
*M3/4
2F\
4r
=14
4F\
2F\
=15||
*M2/4
4F\
4F\
=16||
*M3/4
8F\L
8c\J
8c\L
8A\J
4B-\
==:|!
*-
